!! 00000] TT[00
!! NN
!!!OTL: Cheshui haozi
!!!ARE: Asia, China,ÿZhejiang, Haining
!! Ethnic Group: Han
!! III, 628, 2)
!!!SCT: C0360
!!!YEM: Copyright 1995, estate of Helmut Schaffrath.
**kern
*ICvox
*Ivox
!! Mixed meters:  2/4; 3/4
*M2/4
*k[f#c#g#]
*A:
{8ee
4.ee
=1
16ee
16cc#
8b
[4a
=2
2a]}
=3
{8ee
8cc#
8cc#
8a
=4
8ee
8cc#
8cc#
8b
=5
*M3/4
8b
8a
2a}
=6
*M2/4
{8ee
4.ee
=7
16ee
16cc#
8b
4a}
=8
{8cc#
8a
4b
=9
8ee
8cc#
4b
=10
*M3/4
4b
2a}
=11
*M2/4
{8ee
4.ee
=12
16ee
16cc#
8b
4a}
=13
{8cc#
8ee
8cc#
8ee
=14
4f#
8b
8cc#
=15
*M3/4
8cc#
4.a
4r}
=16
*M2/4
{4.a
8b
=17
8ee
8ee
8cc#
8aa
=18
*M3/4
8ff#
8ee
8cc#
8b
8a
8f#}
=19
{4.a
8b
8cc#
8ee
=20
*M2/4
4a
8b
8cc#
=21
*M3/4
2a
4r}
=22
{4.a
8b
8cc#
8ee
=23
*M2/4
8cc#
8aa
8aa
8ff#
=24
*M3/4
8ee
8cc#
8b
8a
8a
8f#}
=25
*M2/4
{4.a
8b
=26
8.cc#
16ee
8cc#
8ee
=27
8ee
8cc#
8cc#
8a
=28
*M3/4
8b
8cc#
2a}
=29
*M2/4
{4.a
8b
=30
8cc#
8cc#
8ee
8ee
=31
4cc#
4aa
=32
4ff#
8ee
8cc#
=33
8cc#
8b
8a
8f#}
=34
{4.a
8b
=35
4cc#
4ee
=36
4a
8b
8cc#
=37
2a}
=38
{4.a
8b
=39
*M3/4
8cc#
8ee
8cc#
8ee
8ee
8cc#
=40
*M2/4
8ff#
8aa
8aa
[8ff#
=41
8ff#]
4ee
[8cc#
=42
8cc#]
8b
8a
8f#}
=43
{4.a
8b
=44
8cc#
8ee
8cc#
8ee
=45
8.ee
16cc#
8cc#
8a
=46
*M3/4
8b
8cc#
8a
4.a}
=47
*M2/4
{4.a
8b
=48
*M3/4
8cc#
8ee
8cc#
8ee
8cc#
8ee
=49
*M2/4
8cc#
16ee
16ee
8aa
8ff#
=50
*M3/4
8ee
8cc#
8b
8a
4f#}
=51
*M2/4
{4a
8r
8a
=52
8cc#
8ee
8cc#
8ee
=53
4a
8b
8cc#
=54
2a}
=55
{4.a
8b
=56
8cc#
8ee
8ee
8ee
=57
16cc#
16ee
16ee
16ee
16ee
16ee
16cc#
16aa
=58
8aa
8ff#
8ee
8cc#
=59
8b
8a
4f#}
=60
{4.a
8b
=61
8cc#
8ee
8cc#
8ee
=62
4a
8b
8cc#
=63
2a}
=64
*M3/4
{8cc#
8b
8cc#
8ee
8a
8f#
=65
8a
8b
8cc#
8ee
8a
8f#
=66
8cc#
8b
4cc#
8b
8a
=67
*M2/4
2a}
=68
*M3/4
{8cc#
8b
8cc#
8ee
8a
8f#
=69
8a
8b
8cc#
8ee
8a
8f#
=70
8cc#
8b
4cc#
8b
8a
=71
2a}
==
!!!AGN: Haozi, Cheshui haozi. Nongtian cheshui shi chang.
!!    Jisuan shuiche zhuanduong de quanshu
!! Man zaehlt singend, wieviel man schon getragen hat. 3 Personen
!!    singen abwechselnd mit Ueberschneidungen.
!!    Keine echte Zweistimmigkeit. Zwei Personen singen abwechsend, aber
!!    die letzten Toene der jeweils 2 Phrasen umfassenden Teile werden von
!!    beiden gesungen, sie fehlen also am Phrasenanfang. Phr.19-21 unisono.
!!    Vereinzelt Verzierungen.
!!!ONB: ESAC (Essen Associative Code) Database: CHINA
!!!AMT: irregular
!!!AIN: vox
!!!EED: Helmut Schaffrath
!!!EEV: 1.0
*-
!!!ONB: Tied note syntax fixed by Craig Sapp, 2004/05/03/
